home/modules/ROOT/images/cloud.svg

<svg fill="none" height="43" viewBox="0 0 43 43" width="43" xmlns="http://www.w3.org/2000/svg"><path d="m39.6 0h-36.3c-1.8 0-3.3 1.5-3.3 3.3v36.3c0 1.8 1.5 3.3 3.3 3.3h36.3c1.8 0 3.3-1.5 3.3-3.3v-36.3c0-1.8-1.4-3.3-3.3-3.3zm-6.9 33.5h-17.4c-2.8 0-5.5-1-7.7-2.8-2.8-2.3-4.3-5.7-4.3-9.2 0-6.6 5.4-12 12-12 3.1 0 6 1.2 8.2 3.2.9-.4 1.9-.6 2.9-.6 4.3 0 7.9 3.4 8.1 7.7 2.9.8 5.1 3.5 5.1 6.7.1 3.9-3 7-6.9 7z" fill="#2e7de1"/><path d="m15.3 12.5c2.3 0 4.5.9 6.2 2.5l-12.69995 12.6c-1.6-1.7-2.5-3.9-2.5-6.2 0-4.9 3.99995-8.9 8.99995-8.9z" fill="#071b2c"/><path d="m26.5 15.2c-.9 0-1.8.3-2.6.7l-.2.2-13 13c1.4.9 2.9999 1.3 4.7 1.3h6.6l9.5999-9.6v-.6c0-2.7-2.3-5-5.0999-5z" fill="#071b2c"/><path d="m33.1 22.7c2 .2 3.6001 1.9 3.6001 3.9 0 2.2-1.8001 3.9-3.9001 3.9h-7.5z" fill="#2e7de1"/></svg>

<svg width="43" height="43" viewBox="0 0 43 43" fill="none" xmlns="http://www.w3.org/2000/svg">
<path d="M39.6 0H3.3C1.5 0 0 1.5 0 3.3V39.6C0 41.4 1.5 42.9 3.3 42.9H39.6C41.4 42.9 42.9 41.4 42.9 39.6V3.3C42.9 1.5 41.5 0 39.6 0ZM32.7 33.5H15.3C12.5 33.5 9.8 32.5 7.6 30.7C4.8 28.4 3.3 25 3.3 21.5C3.3 14.9 8.7 9.5 15.3 9.5C18.4 9.5 21.3 10.7 23.5 12.7C24.4 12.3 25.4 12.1 26.4 12.1C30.7 12.1 34.3 15.5 34.5 19.8C37.4 20.6 39.6 23.3 39.6 26.5C39.7 30.4 36.6 33.5 32.7 33.5Z" fill="#2E7DE1"/>
<path d="M15.3 12.5C17.6 12.5 19.8 13.4 21.5 15L8.80005 27.6C7.20005 25.9 6.30005 23.7 6.30005 21.4C6.30005 16.5 10.3 12.5 15.3 12.5Z" fill="#071B2C"/>
<path d="M26.5 15.2C25.6 15.2 24.7 15.5 23.9 15.9L23.7 16.1L10.7 29.1C12.1 30 13.6999 30.4 15.4 30.4H22L31.5999 20.8V20.2C31.5999 17.5 29.2999 15.2 26.5 15.2Z" fill="#071B2C"/>
<path d="M33.1 22.7C35.1 22.9 36.7001 24.6 36.7001 26.6C36.7001 28.8 34.9 30.5 32.8 30.5H25.3L33.1 22.7Z" fill="#2E7DE1"/>
</svg>
